src/assets/large-quotetion.svg

<svg width="143" height="120" viewBox="0 0 143 120" fill="none" xmlns="http://www.w3.org/2000/svg">
<path fill-rule="evenodd" clip-rule="evenodd" d="M142.873 18.7419C121.549 29.1541 110.887 41.3882 110.887 55.4447C119.976 56.4859 127.492 60.1735 133.434 66.5076C139.377 72.8417 142.349 80.1735 142.349 88.5033C142.349 97.3536 139.465 104.816 133.697 110.889C127.928 116.963 120.675 120 111.935 120C102.147 120 93.6701 116.052 86.5037 108.156C79.3374 100.26 75.7542 90.6725 75.7542 79.3926C75.7542 45.553 94.806 19.089 132.91 0L142.873 18.7419ZM67.6186 18.7419C46.1196 29.1541 35.3702 41.3882 35.3702 55.4447C44.634 56.4859 52.2373 60.1735 58.1801 66.5076C64.1229 72.8417 67.0943 80.1735 67.0943 88.5033C67.0943 97.3536 64.1666 104.816 58.3112 110.889C52.4557 116.963 45.1584 120 36.419 120C26.6308 120 18.1973 116.052 11.1184 108.156C4.03942 100.26 0.5 90.6725 0.5 79.3926C0.5 45.553 19.4643 19.089 57.3935 0L67.6186 18.7419Z" fill="#C79C03"/>
</svg>

<svg xmlns="http://www.w3.org/2000/svg" width="143" height="120" fill="none"><path fill="#C79C03" fill-rule="evenodd" d="M142.873 18.742c-21.324 10.412-31.986 22.646-31.986 36.703 9.089 1.04 16.605 4.728 22.547 11.063 5.943 6.334 8.915 13.666 8.915 21.995 0 8.85-2.884 16.313-8.652 22.386-5.769 6.074-13.022 9.111-21.762 9.111-9.788 0-18.265-3.948-25.431-11.844-7.167-7.896-10.75-17.484-10.75-28.763 0-33.84 19.052-60.304 57.156-79.393l9.963 18.742Zm-75.254 0C46.119 29.154 35.37 41.388 35.37 55.445c9.264 1.04 16.867 4.728 22.81 11.063 5.943 6.334 8.914 13.666 8.914 21.995 0 8.85-2.927 16.313-8.783 22.386C52.456 116.963 45.158 120 36.42 120c-9.788 0-18.222-3.948-25.3-11.844C4.038 100.26.5 90.672.5 79.393.5 45.553 19.464 19.089 57.394 0l10.225 18.742Z" clip-rule="evenodd"/></svg>
